X: 1429
T: the Green Groves of Erin
O: F.O'Neill
B: O'Neill's 1850 #1429
Z: Bob Safranek, rjs@gsp.org
M: C|
L: 1/8
K: A
|: A2 ((3cBA) eA ((3cBA) | BGBd gedB | A2 ((3cBA) eAcA |1 BGEF GABG :|2 BGTED (EA) A2 || (ea)(ag) (ea)(ag) |
| (ef)(=gf) (ef)(gf) | (ea)(ag) (ea)(ag) | (eg)(fa) gedB || eaab c'abg | egfa gfge | dega bgag | egfa gedB |]
